static/assets/images/networks/merlin-chain.svg

<svg width="256" height="256" viewBox="0 0 256 256" fill="none" xmlns="http://www.w3.org/2000/svg">
<path d="M30.1089 210.475C34.3127 215.459 38.8902 220.118 43.7982 224.408C54.2604 212.743 106.604 156.308 107.425 155.956C108.533 155.175 114.529 153.676 114.66 154.002L117.527 173.153C120.786 195.169 120.656 194.648 123.98 194.648H124.012C127.304 194.648 127.313 194.648 130.171 174.781L132.778 157.78L159.239 177.321L186.221 197.188C188.437 198.296 191.501 196.211 191.435 193.606C191.435 192.303 193.717 195.495 171.166 165.076C160.478 150.615 151.744 138.76 151.874 138.76L169.276 136.155C182.572 134.135 186.613 133.484 187.069 133.158C189.35 131.399 189.35 128.599 187.004 126.84L186.998 126.836C186.352 126.384 186.335 126.372 158.327 122.28L158.091 122.24C154.436 121.61 151.876 121.169 151.94 120.978C158.46 112.045 165.021 103.143 171.622 94.2712C183.289 78.5731 191.305 67.4997 191.435 67.1089C191.541 66.5095 191.505 65.8937 191.33 65.3106C191.156 64.7275 190.847 64.1933 190.429 63.7505C190.012 63.3076 189.496 62.9684 188.924 62.7599C188.352 62.5513 187.739 62.4792 187.134 62.5493C186.547 62.6144 178.857 68.1511 159.5 82.4813L132.713 102.348L131.41 93.229C127.63 67.9557 127.564 67.63 127.108 66.9786C125.414 64.6988 122.546 64.6988 120.851 66.9135C120.46 67.4346 119.809 71.408 117.853 84.7611L115.246 102.153C115.246 102.218 103.189 93.4244 88.5248 82.6116C73.9257 71.7337 61.6077 62.7447 61.1515 62.6144C58.349 61.8328 55.4813 65.2199 56.7848 67.7603L96.1502 121.173C96.085 121.238 88.4596 122.476 79.1397 123.778C59.2614 126.71 59.2614 126.71 59.2614 130.032C59.2614 133.354 58.8052 133.158 80.769 136.415L99.9303 139.346C99.7244 141.819 99.1077 144.241 98.1055 146.511C97.4537 148.01 96.7368 148.726 62.5201 180.383L30.1089 210.475Z" fill="white"/>
<path d="M128 256C198.692 256 256 198.692 256 128C256 57.3075 198.692 0 128 0C57.3075 0 0 57.3075 0 128C0 159.422 11.322 188.199 30.1089 210.475L62.5201 180.383C96.7368 148.726 97.4537 148.01 98.1055 146.511C99.1077 144.241 99.7244 141.819 99.9303 139.346L80.769 136.415C58.8052 133.158 59.2614 133.354 59.2614 130.032C59.2614 126.71 59.2614 126.71 79.1397 123.778C88.4596 122.476 96.085 121.238 96.1502 121.173L56.7848 67.7603C55.4813 65.2199 58.349 61.8328 61.1515 62.6144C61.6077 62.7447 73.9257 71.7337 88.5248 82.6116C103.189 93.4244 115.246 102.218 115.246 102.153L117.853 84.7611C119.809 71.408 120.46 67.4346 120.851 66.9135C122.546 64.6988 125.414 64.6988 127.108 66.9786C127.564 67.63 127.63 67.9557 131.41 93.229L132.713 102.348L159.5 82.4813C178.857 68.1511 186.547 62.6144 187.134 62.5493C187.739 62.4792 188.352 62.5513 188.924 62.7599C189.496 62.9684 190.012 63.3076 190.429 63.7505C190.847 64.1933 191.156 64.7275 191.33 65.3106C191.505 65.8937 191.541 66.5095 191.435 67.1089C191.305 67.4997 183.289 78.5731 171.622 94.2712C165.021 103.143 158.46 112.045 151.94 120.978C151.876 121.169 154.436 121.61 158.091 122.24L158.327 122.28C186.335 126.372 186.352 126.384 186.998 126.836L187.004 126.84C189.35 128.599 189.35 131.399 187.069 133.158C186.613 133.484 182.572 134.135 169.276 136.155L151.874 138.76C151.744 138.76 160.478 150.615 171.166 165.076C193.717 195.495 191.435 192.303 191.435 193.606C191.501 196.211 188.437 198.296 186.221 197.188L159.239 177.321L132.778 157.78L130.171 174.781C127.313 194.648 127.304 194.648 124.012 194.648H123.98C120.656 194.648 120.786 195.169 117.527 173.153L114.66 154.002C114.529 153.676 108.533 155.175 107.425 155.956C106.604 156.308 54.2604 212.743 43.7982 224.408C66.304 244.081 95.76 256 128 256Z" fill="url(#paint0_linear_9180_815)"/>
<defs>
<linearGradient id="paint0_linear_9180_815" x1="-6.5" y1="68.75" x2="246.5" y2="178.75" gradientUnits="userSpaceOnUse">
<stop stop-color="#3420ED"/>
<stop offset="1" stop-color="#A97FFF"/>
</linearGradient>
</defs>
</svg>

<svg xmlns="http://www.w3.org/2000/svg" fill="none" viewBox="0 0 256 256"><path fill="#fff" d="M30.109 210.475a129 129 0 0 0 13.69 13.933c10.461-11.665 62.805-68.1 63.626-68.452 1.108-.781 7.104-2.28 7.235-1.954l2.867 19.151c3.259 22.016 3.129 21.495 6.453 21.495h.032c3.292 0 3.301 0 6.159-19.867l2.607-17.001 26.461 19.541 26.982 19.867c2.216 1.108 5.28-.977 5.214-3.582 0-1.303 2.282 1.889-20.269-28.53-10.688-14.461-19.422-26.316-19.292-26.316l17.402-2.605c13.296-2.02 17.337-2.671 17.793-2.997 2.281-1.759 2.281-4.559-.065-6.318l-.006-.004c-.646-.452-.663-.464-28.671-4.556l-.236-.04c-3.655-.63-6.215-1.071-6.151-1.262a3614 3614 0 0 1 19.682-26.707c11.667-15.698 19.683-26.771 19.813-27.162a3.9 3.9 0 0 0-1.006-3.358 3.9 3.9 0 0 0-3.295-1.202c-.587.065-8.277 5.602-27.634 19.932l-26.787 19.867-1.303-9.119c-3.78-25.273-3.846-25.599-4.302-26.25-1.694-2.28-4.562-2.28-6.257-.066-.391.522-1.042 4.495-2.998 17.848l-2.607 17.392c0 .065-12.057-8.729-26.721-19.541-14.6-10.878-26.917-19.867-27.374-19.998-2.802-.781-5.67 2.606-4.366 5.146l39.365 53.413c-.065.065-7.69 1.303-17.01 2.605-19.879 2.932-19.879 2.932-19.879 6.254s-.456 3.126 21.508 6.383l19.161 2.931a22.3 22.3 0 0 1-1.825 7.165c-.651 1.499-1.368 2.215-35.585 33.872z"/><path fill="url(#paint0_linear_9180_815)" d="M128 256c70.692 0 128-57.308 128-128S198.692 0 128 0 0 57.308 0 128c0 31.422 11.322 60.199 30.109 82.475l32.411-30.092c34.217-31.657 34.934-32.373 35.586-33.872a22.3 22.3 0 0 0 1.824-7.165l-19.161-2.931c-21.964-3.257-21.508-3.061-21.508-6.383s0-3.322 19.879-6.254c9.32-1.302 16.945-2.54 17.01-2.605L56.785 67.76c-1.304-2.54 1.564-5.927 4.367-5.146.456.13 12.774 9.12 27.373 19.998 14.664 10.812 26.721 19.606 26.721 19.541l2.607-17.392c1.956-13.353 2.607-17.326 2.998-17.847 1.695-2.215 4.563-2.215 6.257.065.456.651.522.977 4.302 26.25l1.303 9.119L159.5 82.481c19.357-14.33 27.047-19.867 27.634-19.932a3.91 3.91 0 0 1 4.301 4.56c-.13.39-8.146 11.464-19.813 27.162a3614 3614 0 0 0-19.682 26.707c-.064.191 2.496.632 6.151 1.262l.236.04c28.008 4.092 28.025 4.104 28.671 4.556l.006.004c2.346 1.759 2.346 4.559.065 6.318-.456.326-4.497.977-17.793 2.997l-17.402 2.605c-.13 0 8.604 11.855 19.292 26.316 22.551 30.419 20.269 27.227 20.269 28.53.066 2.605-2.998 4.69-5.214 3.582l-26.982-19.867-26.461-19.541-2.607 17.001c-2.858 19.867-2.867 19.867-6.159 19.867h-.032c-3.324 0-3.194.521-6.453-21.495l-2.867-19.151c-.131-.326-6.127 1.173-7.235 1.954-.821.352-53.165 56.787-63.627 68.452C66.304 244.081 95.76 256 128 256"/><defs><linearGradient id="paint0_linear_9180_815" x1="-6.5" x2="246.5" y1="68.75" y2="178.75" gradientUnits="userSpaceOnUse"><stop stop-color="#3420ED"/><stop offset="1" stop-color="#A97FFF"/></linearGradient></defs></svg>
